X: 65
T: No_157_White_Mountain_Birds_were_Singing.krn
N: Derived from No_157_White_Mountain_Birds_were_Singing.krn
%%abc-version 2.0
%%abcx-abcm2ps-target-version 5.9.1 (29 Sep 2008)
%%abc-creator hum2abc beta
%%abcx-conversion-date 2019/03/15 08:37:56
%%humdrum-veritas 3020505286
%%humdrum-veritas-data 3234145611
%%linebreak <none>
%%barnumbers 0
L: 1/4
M: 2/4
K: Eb clef=bass
B, [I:setbarnb 1]| 
GG ||  
[M:3/4]FF3//E//G ||  
[M:2/4]F//E3//-(E | 
C//)B,3//E | 
C//B,3//-B, | 
B,z | 
E2 | 
EG | 
F2- | 
FF3//E// ||  
[M:3/4]EE//C3//-C | 
B,/B,/G,B, ||  
[M:2/4]B,G,/ z/ | 
EE3//C// | 
C/C/C ||  
[M:3/4](B,2G,/)F,/ ||  
[M:2/4]B,2 | 
B,z |]  



